krita/pics/Breeze-light/light_document-print-preview.svg

<?xml version="1.0" encoding="UTF-8" standalone="no"?>
<!-- Created with Inkscape (http://www.inkscape.org/) -->

<svg
   xmlns:dc="http://purl.org/dc/elements/1.1/"
   xmlns:cc="http://creativecommons.org/ns#"
   xmlns:rdf="http://www.w3.org/1999/02/22-rdf-syntax-ns#"
   xmlns:svg="http://www.w3.org/2000/svg"
   xmlns="http://www.w3.org/2000/svg"
   xmlns:sodipodi="http://sodipodi.sourceforge.net/DTD/sodipodi-0.dtd"
   xmlns:inkscape="http://www.inkscape.org/namespaces/inkscape"
   width="22"
   height="22"
   id="svg2"
   version="1.1"
   inkscape:version="0.48+devel r"
   viewBox="0 0 22 22"
   sodipodi:docname="document-preview-archive.svg">
  <defs
     id="defs4" />
  <sodipodi:namedview
     id="base"
     pagecolor="#ffffff"
     bordercolor="#666666"
     borderopacity="1.0"
     inkscape:pageopacity="0.0"
     inkscape:pageshadow="2"
     inkscape:zoom="16.148551"
     inkscape:cx="5.6463253"
     inkscape:cy="11.624058"
     inkscape:document-units="px"
     inkscape:current-layer="layer1"
     showgrid="true"
     inkscape:showpageshadow="false"
     borderlayer="true"
     inkscape:window-width="1366"
     inkscape:window-height="668"
     inkscape:window-x="-2"
     inkscape:window-y="23"
     inkscape:window-maximized="1"
     units="px">
    <sodipodi:guide
       position="2,20.000017"
       orientation="18,0"
       id="guide4085" />
    <sodipodi:guide
       position="2,2.0000174"
       orientation="0,18"
       id="guide4087" />
    <sodipodi:guide
       position="20,2.0000174"
       orientation="-18,0"
       id="guide4089" />
    <sodipodi:guide
       position="20,20.000017"
       orientation="0,-18"
       id="guide4091" />
    <sodipodi:guide
       position="3,19.000017"
       orientation="16,0"
       id="guide4093" />
    <sodipodi:guide
       position="3,3.0000174"
       orientation="0,16"
       id="guide4095" />
    <sodipodi:guide
       position="19,3.0000174"
       orientation="-16,0"
       id="guide4097" />
    <sodipodi:guide
       position="19,19.000017"
       orientation="0,-16"
       id="guide4099" />
    <inkscape:grid
       type="xygrid"
       id="grid4101" />
    <sodipodi:guide
       position="3,19.000017"
       orientation="16,0"
       id="guide4123" />
    <sodipodi:guide
       position="3,3.0000174"
       orientation="0,2.000001"
       id="guide4125" />
    <sodipodi:guide
       position="4,19.000017"
       orientation="-16,0"
       id="guide4127" />
    <sodipodi:guide
       position="5.000001,19.000017"
       orientation="0,-2.000001"
       id="guide4129" />
    <sodipodi:guide
       position="18,19.000017"
       orientation="16,0"
       id="guide4131" />
    <sodipodi:guide
       position="17,3.0000174"
       orientation="0,2"
       id="guide4133" />
    <sodipodi:guide
       position="19,3.0000174"
       orientation="-16,0"
       id="guide4135" />
    <sodipodi:guide
       position="19,19.000017"
       orientation="0,-2"
       id="guide4137" />
    <sodipodi:guide
       position="12.000017,9.0000174"
       orientation="6,0"
       id="guide4094" />
    <sodipodi:guide
       position="12.000017,3.0000174"
       orientation="0,5.9999828"
       id="guide4096" />
    <sodipodi:guide
       position="18,3.0000174"
       orientation="-6,0"
       id="guide4098" />
    <sodipodi:guide
       position="18,9.0000174"
       orientation="0,-5.9999828"
       id="guide4100" />
    <sodipodi:guide
       position="14.000029,7.0000174"
       orientation="4,0"
       id="guide4102" />
    <sodipodi:guide
       position="14.000029,3.0000174"
       orientation="0,3.9999714"
       id="guide4104" />
    <sodipodi:guide
       position="18,3.0000174"
       orientation="-4,0"
       id="guide4106" />
    <sodipodi:guide
       position="18,7.0000174"
       orientation="0,-3.9999714"
       id="guide4108" />
  </sodipodi:namedview>
  <metadata
     id="metadata7">
    <rdf:RDF>
      <cc:Work
         rdf:about="">
        <dc:format>image/svg+xml</dc:format>
        <dc:type
           rdf:resource="http://purl.org/dc/dcmitype/StillImage" />
        <dc:title />
      </cc:Work>
    </rdf:RDF>
  </metadata>
  <g
     inkscape:label="Capa 1"
     inkscape:groupmode="layer"
     id="layer1"
     transform="translate(0,-1030.3622)">
    <path
       style="fill:#d2d2d2;fill-opacity:1;stroke:none"
       d="M 4 3 L 4 19 L 5 19 L 12 19 L 12 18 L 5 18 L 5 4 L 17 4 L 17 13 L 18 13 L 18 3 L 17 3 L 5 3 L 4 3 z M 13 11 C 11.337997 11 10 12.337997 10 14 C 10 15.662003 11.337997 17 13 17 C 13.649392 17 14.246354 16.791414 14.736328 16.443359 L 17.292969 19 L 18 18.292969 L 15.443359 15.736328 C 15.791414 15.246354 16 14.649392 16 14 C 16 12.337997 14.662003 11 13 11 z M 13 12 C 14.108003 12 15 12.891997 15 14 C 15 15.108003 14.108003 16 13 16 C 11.891997 16 11 15.108003 11 14 C 11 12.891997 11.891997 12 13 12 z "
       transform="translate(0,1030.3622)"
       id="rect4139" />
  </g>
</svg>

<!--Created with Inkscape (http://www.inkscape.org/)--><svg xmlns:dc="http://purl.org/dc/elements/1.1/" xmlns:cc="http://creativecommons.org/ns#" xmlns:rdf="http://www.w3.org/1999/02/22-rdf-syntax-ns#" xmlns="http://www.w3.org/2000/svg" xmlns:sodipodi="http://sodipodi.sourceforge.net/DTD/sodipodi-0.dtd" xmlns:inkscape="http://www.inkscape.org/namespaces/inkscape" width="22" height="22" id="svg2" version="1.1" inkscape:version="0.48+devel r" viewBox="0 0 22 22" sodipodi:docname="document-preview-archive.svg"><sodipodi:namedview id="base" pagecolor="#ffffff" bordercolor="#666666" borderopacity="1.0" inkscape:pageopacity="0.0" inkscape:pageshadow="2" inkscape:zoom="16.148551" inkscape:cx="5.6463253" inkscape:cy="11.624058" inkscape:document-units="px" inkscape:current-layer="layer1" showgrid="true" inkscape:showpageshadow="false" borderlayer="true" inkscape:window-width="1366" inkscape:window-height="668" inkscape:window-x="-2" inkscape:window-y="23" inkscape:window-maximized="1" units="px"><sodipodi:guide position="2,20.000017" orientation="18,0" id="guide4085"/><sodipodi:guide position="2,2.0000174" orientation="0,18" id="guide4087"/><sodipodi:guide position="20,2.0000174" orientation="-18,0" id="guide4089"/><sodipodi:guide position="20,20.000017" orientation="0,-18" id="guide4091"/><sodipodi:guide position="3,19.000017" orientation="16,0" id="guide4093"/><sodipodi:guide position="3,3.0000174" orientation="0,16" id="guide4095"/><sodipodi:guide position="19,3.0000174" orientation="-16,0" id="guide4097"/><sodipodi:guide position="19,19.000017" orientation="0,-16" id="guide4099"/><inkscape:grid type="xygrid" id="grid4101"/><sodipodi:guide position="3,19.000017" orientation="16,0" id="guide4123"/><sodipodi:guide position="3,3.0000174" orientation="0,2.000001" id="guide4125"/><sodipodi:guide position="4,19.000017" orientation="-16,0" id="guide4127"/><sodipodi:guide position="5.000001,19.000017" orientation="0,-2.000001" id="guide4129"/><sodipodi:guide position="18,19.000017" orientation="16,0" id="guide4131"/><sodipodi:guide position="17,3.0000174" orientation="0,2" id="guide4133"/><sodipodi:guide position="19,3.0000174" orientation="-16,0" id="guide4135"/><sodipodi:guide position="19,19.000017" orientation="0,-2" id="guide4137"/><sodipodi:guide position="12.000017,9.0000174" orientation="6,0" id="guide4094"/><sodipodi:guide position="12.000017,3.0000174" orientation="0,5.9999828" id="guide4096"/><sodipodi:guide position="18,3.0000174" orientation="-6,0" id="guide4098"/><sodipodi:guide position="18,9.0000174" orientation="0,-5.9999828" id="guide4100"/><sodipodi:guide position="14.000029,7.0000174" orientation="4,0" id="guide4102"/><sodipodi:guide position="14.000029,3.0000174" orientation="0,3.9999714" id="guide4104"/><sodipodi:guide position="18,3.0000174" orientation="-4,0" id="guide4106"/><sodipodi:guide position="18,7.0000174" orientation="0,-3.9999714" id="guide4108"/></sodipodi:namedview><metadata id="metadata7"><rdf:RDF><cc:Work><dc:format>image/svg+xml</dc:format><dc:type rdf:resource="http://purl.org/dc/dcmitype/StillImage"/><dc:title/></cc:Work></rdf:RDF></metadata><g inkscape:label="Capa 1" inkscape:groupmode="layer" id="layer1" transform="translate(0 -1030.362)"><path style="fill:#d2d2d2;fill-opacity:1;stroke:none" d="M4 3v16h8v-1H5V4h12v9h1V3H4zm9 8c-1.662 0-3 1.338-3 3s1.338 3 3 3c.65 0 1.246-.209 1.736-.557L17.293 19l.707-.707-2.557-2.557A2.993 2.993 0 0 0 13 11zm0 1c1.108 0 2 .892 2 2s-.892 2-2 2-2-.892-2-2 .892-2 2-2z" transform="translate(0 1030.362)" id="rect4139"/></g></svg>
